X: 04067
T: NERISSA
C: Bob McQuillen 25 Sept 78
B: Bob's Note Book 04 #67
%R: waltz
Z: 2020 John Chambers <jc:trillian.mit.edu>
M: 3/4
L: 1/8
K: G
D2 \
| E2 G3 D | E2 G3 A | B2 d3 e | d2 B2 A2 | G2 A3 B | d2 B2 A2 | B4 AB | G2 E2 D2 |
| E2 G3 D | E2 G3 A | B2 d3 e | d2 B2 d2 | e2 g3 e | d2 B2 A2 | B2 G3 G | G4 ||
|| d2 \
| g4 ag | e2 d2 g2 | e2 d3 e | d2 B2 A2 | g4 ag | e2 d2 e2 | dB G2 B2 | A2 G2 E2 |
| D4 EG | A2 G2 A2 | B2 d3 e | d2 B2 d2 | g4 ag | e2 d2 B2 | GB A3 G | G4 |]
%%begintext align
%% With love always to a nice girl
%% names Nerissa Osbourne of
%% Walpole, H.H. Happy Dancing!
%%endtext

%%sep 1 1 500

%%sep 1 1 500

